X:918
T:Reel 918
M:4/4
K:Gmaj
L:1/8
Bc|d2BG AG (3AGF |G2Bd gedc|BcAG BGAF|DEFG AcBA|G2BG AGED|GBde g2ef|gefd ecdB|cBAB c2|de|fded Bd (3dcB |dgfg ecB2|dgfg ecce|dBGB c2Bc| (3BcB gd efge|dB (3BeB e2de|fefd edBG|FGEF G2|
